X:180
T: Die Mordeltern
N: Q0085V
O: Mitteleuropa, Deutschland (BRD) , Hessen, Nassau
R: Ballade, Habgier, Mord, Reue, Selbstmord
M: 3/4
L: 1/8
K: G
D | DBB3B | BAA3
A | GBA3E | GFF3
D | EDB,DDG | G2z2
G2 | G4A2 | B4d2 | A6 | G4z

@@@ Tune index: 1235
